Speka/assets/images/telegram.svg

<svg width="26" height="26" viewBox="0 0 26 26" fill="none" xmlns="http://www.w3.org/2000/svg">
<path d="M25.8779 13.0981C25.8779 6.19459 20.2815 0.598145 13.3779 0.598145C6.47437 0.598145 0.87793 6.19459 0.87793 13.0981C0.87793 20.0017 6.47437 25.5981 13.3779 25.5981C20.2815 25.5981 25.8779 20.0017 25.8779 13.0981Z" fill="#F58220"/>
<path d="M20.0649 8.11805L17.7433 18.4536C17.5681 19.183 17.1113 19.3645 16.4622 19.021L12.9248 16.5602L11.218 18.1099C11.0291 18.2882 10.8711 18.4374 10.507 18.4374L10.7612 15.0365L17.3174 9.44403C17.6025 9.20411 17.2556 9.07119 16.8744 9.31111L8.76924 14.1287L5.27991 13.0978C4.52091 12.874 4.50724 12.3813 5.43788 12.0377L19.0861 7.07412C19.718 6.85047 20.2709 7.20704 20.0649 8.11805Z" fill="white"/>
</svg>

<svg width="26" height="26" fill="none" xmlns="http://www.w3.org/2000/svg"><path d="M25.878 13.098c0-6.903-5.596-12.5-12.5-12.5s-12.5 5.597-12.5 12.5c0 6.904 5.596 12.5 12.5 12.5s12.5-5.596 12.5-12.5z" fill="#F58220"/><path d="M20.065 8.118l-2.322 10.336c-.175.729-.632.91-1.28.567l-3.538-2.46-1.707 1.549c-.189.178-.347.327-.711.327l.254-3.4 6.556-5.593c.285-.24-.061-.373-.443-.133L8.77 14.13l-3.49-1.031c-.758-.224-.772-.717.159-1.06l13.648-4.964c.632-.224 1.185.133.979 1.044z" fill="#fff"/></svg>
